src/cards/diamonds_8.svg

<svg version="1.1" id="Layer_1" xmlns="http://www.w3.org/2000/svg" xmlns:xlink="http://www.w3.org/1999/xlink" x="0px" y="0px"
	 width="100%" viewBox="0 0 340 500" enable-background="new 0 0 340 500" xml:space="preserve">
<path fill="transparent" opacity="1.000000" stroke="none" 
	d="
M341.000000,193.000000 
	C341.000000,296.000000 341.000000,398.499969 341.000000,501.000000 
	C227.666687,501.000000 114.333382,501.000000 1.000058,501.000000 
	C1.000039,334.333374 1.000039,167.666763 1.000019,1.000103 
	C114.333275,1.000068 227.666550,1.000068 340.999908,1.000034 
	C341.000000,64.833336 341.000000,128.666672 341.000000,193.000000 
M234.276016,386.744019 
	C225.330673,395.537811 216.385330,404.331604 207.398727,413.165955 
	C220.667953,421.653503 231.918732,433.426727 240.986023,446.749023 
	C246.661179,440.182861 251.654617,433.694336 257.399933,427.958984 
	C263.102234,422.266632 269.561340,417.332428 275.988281,411.808105 
	C262.121368,402.962067 250.861755,391.201538 241.362595,377.277679 
	C238.883209,380.617218 236.810425,383.409088 234.276016,386.744019 
M159.945648,309.423462 
	C152.380386,316.330414 144.815125,323.237396 137.016098,330.357788 
	C150.520706,339.124817 161.895691,350.803101 171.404327,364.887848 
	C180.829575,350.512146 192.349442,339.118134 206.555710,329.715759 
	C192.186127,320.367676 180.785919,308.749634 171.511353,294.858429 
	C167.626175,299.777435 164.024445,304.337524 159.945648,309.423462 
M106.335106,54.104183 
	C104.763451,51.960342 103.191788,49.816498 101.243301,47.158634 
	C91.979286,61.328499 80.402939,72.848450 66.090576,82.283333 
	C80.585602,91.658615 91.967178,103.340729 101.376236,117.412498 
	C110.817772,103.124611 122.260391,91.666542 135.032928,83.249657 
	C125.615204,73.718102 116.202431,64.191566 106.335106,54.104183 
M246.991989,109.525536 
	C256.304810,100.151871 265.617615,90.778198 275.087280,81.246651 
	C262.177063,72.978798 250.862762,61.252724 241.661896,47.698845 
	C236.083649,54.233356 231.161682,60.773373 225.426743,66.499153 
	C219.702774,72.214005 213.164505,77.113235 206.676743,82.630676 
	C220.526260,91.684860 232.012360,103.285225 241.273773,117.344002 
	C243.235184,114.654503 244.899643,112.372185 246.991989,109.525536 
M257.057709,260.557922 
	C263.325012,255.183685 269.592316,249.809448 275.963043,244.346527 
	C262.169952,235.278870 250.754730,223.775558 241.336441,209.562302 
	C231.989822,223.723373 220.516388,235.329132 206.045441,244.758347 
	C220.564545,254.114883 231.868652,265.846069 241.036423,279.304688 
	C246.430450,272.962738 251.491440,267.012360 257.057709,260.557922 
M176.567245,136.907974 
	C174.902176,134.626083 173.237122,132.344177 171.245178,129.614334 
	C162.052399,143.757736 150.495865,155.290573 136.012573,164.809372 
	C150.592941,174.054230 161.859787,185.837250 171.390549,199.883011 
	C180.870346,185.522064 192.339127,174.074554 205.052734,165.719635 
	C195.621368,156.225082 186.308365,146.849686 176.567245,136.907974 
M115.050781,262.566833 
	C121.951622,256.486816 128.852463,250.406784 135.838333,244.251831 
	C122.062050,235.222824 110.741447,223.681671 101.311203,209.569290 
	C91.946770,223.843414 80.385651,235.321182 66.111839,244.802139 
	C80.569038,254.190689 91.898415,265.749390 101.073151,279.507050 
	C105.741287,273.810577 110.143242,268.438934 115.050781,262.566833 
M95.851608,439.692505 
	C97.646019,442.154205 99.440422,444.615906 101.436905,447.354858 
	C110.855392,433.012939 122.356995,421.651642 136.542038,412.222351 
	C122.201477,402.909668 110.819618,391.264099 101.283195,377.107330 
	C91.808632,391.468597 80.350327,402.898193 67.574371,411.285980 
	C76.954437,420.672150 86.179100,429.902802 95.851608,439.692505 
M324.774109,474.056458 
	C323.517426,470.157593 322.260712,466.258759 320.822388,461.796417 
	C320.318726,462.156616 320.926117,461.665497 321.585999,461.259705 
	C325.509338,458.846985 327.431854,455.351013 326.844574,450.775635 
	C326.269348,446.294373 323.200348,443.776489 319.175507,442.436035 
	C313.613678,440.583740 307.997162,440.634216 302.589935,442.997467 
	C294.387085,446.582489 293.369598,456.048645 300.524078,461.454407 
	C301.653137,462.307526 302.830322,463.096924 304.049103,463.961060 
	C302.414856,465.448975 300.937500,466.544250 299.770416,467.905548 
	C296.791382,471.380432 297.175934,476.429016 300.204956,479.670105 
	C305.269501,485.089264 322.619781,484.885559 324.774109,474.056458 
M23.741020,52.116089 
	C27.361927,52.405617 31.011410,53.127182 34.597477,52.889980 
	C41.017563,52.465332 45.505917,48.899040 46.655617,44.088295 
	C47.806259,39.273628 45.712711,35.450027 39.789925,31.534243 
	C39.304741,31.213470 38.842129,30.858555 38.313240,30.479521 
	C45.323254,25.366508 46.932541,20.069126 43.015236,15.466478 
	C38.430996,10.080219 26.588182,9.680594 21.021923,14.724338 
	C16.220865,19.074709 16.934004,25.146610 22.998512,31.553675 
	C13.152617,39.545250 13.139008,46.791672 23.741020,52.116089 
M297.167725,404.677246 
	C296.118439,405.551117 295.069122,406.424988 294.019806,407.298859 
	C294.687805,406.871521 295.355774,406.444214 296.023743,406.016907 
	C301.566528,411.657104 307.109314,417.297333 311.219635,421.479889 
	C315.506714,417.067078 321.100830,411.308838 324.950806,407.345947 
	C321.082489,403.374512 315.402344,397.542999 310.954041,392.976135 
	C307.556335,395.863251 302.636017,400.044128 297.167725,404.677246 
M29.984692,102.416328 
	C30.792307,102.527641 32.012302,103.036491 32.345695,102.690651 
	C37.364170,97.484848 42.266010,92.166611 45.932037,88.230911 
	C40.913662,83.150253 35.490990,77.660271 31.725029,73.847572 
	C27.484259,78.126595 22.051149,83.608719 17.078503,88.626228 
	C20.263691,91.989990 24.927902,96.915695 29.984692,102.416328 
z"/>
<path fill="currentColor" opacity="1.000000" stroke="none" 
	d="
M234.506836,386.472473 
	C236.810425,383.409088 238.883209,380.617218 241.362595,377.277679 
	C250.861755,391.201538 262.121368,402.962067 275.988281,411.808105 
	C269.561340,417.332428 263.102234,422.266632 257.399933,427.958984 
	C251.654617,433.694336 246.661179,440.182861 240.986023,446.749023 
	C231.918732,433.426727 220.667953,421.653503 207.398727,413.165955 
	C216.385330,404.331604 225.330673,395.537811 234.506836,386.472473 
z"/>
<path fill="currentColor" opacity="1.000000" stroke="none" 
	d="
M160.184174,309.160553 
	C164.024445,304.337524 167.626175,299.777435 171.511353,294.858429 
	C180.785919,308.749634 192.186127,320.367676 206.555710,329.715759 
	C192.349442,339.118134 180.829575,350.512146 171.404327,364.887848 
	C161.895691,350.803101 150.520706,339.124817 137.016098,330.357788 
	C144.815125,323.237396 152.380386,316.330414 160.184174,309.160553 
z"/>
<path fill="currentColor" opacity="1.000000" stroke="none" 
	d="
M106.562386,54.384605 
	C116.202431,64.191566 125.615204,73.718102 135.032928,83.249657 
	C122.260391,91.666542 110.817772,103.124611 101.376236,117.412498 
	C91.967178,103.340729 80.585602,91.658615 66.090576,82.283333 
	C80.402939,72.848450 91.979286,61.328499 101.243301,47.158634 
	C103.191788,49.816498 104.763451,51.960342 106.562386,54.384605 
z"/>
<path fill="currentColor" opacity="1.000000" stroke="none" 
	d="
M246.778046,109.807701 
	C244.899643,112.372185 243.235184,114.654503 241.273773,117.344002 
	C232.012360,103.285225 220.526260,91.684860 206.676743,82.630676 
	C213.164505,77.113235 219.702774,72.214005 225.426743,66.499153 
	C231.161682,60.773373 236.083649,54.233356 241.661896,47.698845 
	C250.862762,61.252724 262.177063,72.978798 275.087280,81.246651 
	C265.617615,90.778198 256.304810,100.151871 246.778046,109.807701 
z"/>
<path fill="currentColor" opacity="1.000000" stroke="none" 
	d="
M256.805054,260.809937 
	C251.491440,267.012360 246.430450,272.962738 241.036423,279.304688 
	C231.868652,265.846069 220.564545,254.114883 206.045441,244.758347 
	C220.516388,235.329132 231.989822,223.723373 241.336441,209.562302 
	C250.754730,223.775558 262.169952,235.278870 275.963043,244.346527 
	C269.592316,249.809448 263.325012,255.183685 256.805054,260.809937 
z"/>
<path fill="currentColor" opacity="1.000000" stroke="none" 
	d="
M176.781311,137.191132 
	C186.308365,146.849686 195.621368,156.225082 205.052734,165.719635 
	C192.339127,174.074554 180.870346,185.522064 171.390549,199.883011 
	C161.859787,185.837250 150.592941,174.054230 136.012573,164.809372 
	C150.495865,155.290573 162.052399,143.757736 171.245178,129.614334 
	C173.237122,132.344177 174.902176,134.626083 176.781311,137.191132 
z"/>
<path fill="currentColor" opacity="1.000000" stroke="none" 
	d="
M114.797989,262.817047 
	C110.143242,268.438934 105.741287,273.810577 101.073151,279.507050 
	C91.898415,265.749390 80.569038,254.190689 66.111839,244.802139 
	C80.385651,235.321182 91.946770,223.843414 101.311203,209.569290 
	C110.741447,223.681671 122.062050,235.222824 135.838333,244.251831 
	C128.852463,250.406784 121.951622,256.486816 114.797989,262.817047 
z"/>
<path fill="currentColor" opacity="1.000000" stroke="none" 
	d="
M95.627686,439.412964 
	C86.179100,429.902802 76.954437,420.672150 67.574371,411.285980 
	C80.350327,402.898193 91.808632,391.468597 101.283195,377.107330 
	C110.819618,391.264099 122.201477,402.909668 136.542038,412.222351 
	C122.356995,421.651642 110.855392,433.012939 101.436905,447.354858 
	C99.440422,444.615906 97.646019,442.154205 95.627686,439.412964 
z"/>
<path fill="currentColor" opacity="1.000000" stroke="none" 
	d="
M324.684814,474.438965 
	C322.619781,484.885559 305.269501,485.089264 300.204956,479.670105 
	C297.175934,476.429016 296.791382,471.380432 299.770416,467.905548 
	C300.937500,466.544250 302.414856,465.448975 304.049103,463.961060 
	C302.830322,463.096924 301.653137,462.307526 300.524078,461.454407 
	C293.369598,456.048645 294.387085,446.582489 302.589935,442.997467 
	C307.997162,440.634216 313.613678,440.583740 319.175507,442.436035 
	C323.200348,443.776489 326.269348,446.294373 326.844574,450.775635 
	C327.431854,455.351013 325.509338,458.846985 321.585999,461.259705 
	C320.926117,461.665497 320.318726,462.156616 320.822388,461.796417 
	C322.260712,466.258759 323.517426,470.157593 324.684814,474.438965 
M310.373779,458.258209 
	C315.645935,460.935822 318.301117,459.826019 319.059204,454.529022 
	C319.673950,450.233521 318.204041,447.070068 313.807098,445.739899 
	C309.874451,444.550201 306.279053,445.233521 304.622894,449.191132 
	C302.669220,453.859619 306.321106,455.987823 310.373779,458.258209 
M313.191681,479.079010 
	C317.090912,478.001068 318.640869,474.982574 316.522339,471.997253 
	C314.755188,469.507080 311.200989,468.285095 308.438293,466.501404 
	C307.317657,469.232697 305.211029,472.002441 305.315735,474.685913 
	C305.459808,478.376404 308.835754,479.454620 313.191681,479.079010 
z"/>
<path fill="currentColor" opacity="1.000000" stroke="none" 
	d="
M23.350643,52.016594 
	C13.139008,46.791672 13.152617,39.545250 22.998512,31.553675 
	C16.934004,25.146610 16.220865,19.074709 21.021923,14.724338 
	C26.588182,9.680594 38.430996,10.080219 43.015236,15.466478 
	C46.932541,20.069126 45.323254,25.366508 38.313240,30.479521 
	C38.842129,30.858555 39.304741,31.213470 39.789925,31.534243 
	C45.712711,35.450027 47.806259,39.273628 46.655617,44.088295 
	C45.505917,48.899040 41.017563,52.465332 34.597477,52.889980 
	C31.011410,53.127182 27.361927,52.405617 23.350643,52.016594 
M29.894821,49.035332 
	C35.729641,49.030182 38.498913,47.169876 38.497364,43.256424 
	C38.496044,39.924046 32.373871,33.904312 28.380814,34.619862 
	C26.371054,34.980003 24.027109,38.428402 23.474873,40.853828 
	C22.556002,44.889507 25.170464,47.634315 29.894821,49.035332 
M30.039371,26.623156 
	C32.319000,28.107397 34.507423,28.978079 36.317215,25.935085 
	C38.314980,22.576038 38.773800,19.163916 35.453056,16.562140 
	C32.528286,14.270607 28.834473,14.173197 26.499777,17.207634 
	C23.525454,21.073399 26.139475,23.924715 30.039371,26.623156 
z"/>
<path fill="currentColor" opacity="1.000000" stroke="none" 
	d="
M297.441711,404.451141 
	C302.636017,400.044128 307.556335,395.863251 310.954041,392.976135 
	C315.402344,397.542999 321.082489,403.374512 324.950806,407.345947 
	C321.100830,411.308838 315.506714,417.067078 311.219635,421.479889 
	C307.109314,417.297333 301.566528,411.657104 296.023743,406.016907 
	C295.355774,406.444214 294.687805,406.871521 294.019806,407.298859 
	C295.069122,406.424988 296.118439,405.551117 297.441711,404.451141 
z"/>
<path fill="currentColor" opacity="1.000000" stroke="none" 
	d="
M29.788403,102.128860 
	C24.927902,96.915695 20.263691,91.989990 17.078503,88.626228 
	C22.051149,83.608719 27.484259,78.126595 31.725029,73.847572 
	C35.490990,77.660271 40.913662,83.150253 45.932037,88.230911 
	C42.266010,92.166611 37.364170,97.484848 32.345695,102.690651 
	C32.012302,103.036491 30.792307,102.527641 29.788403,102.128860 
z"/>
<path fill="white" opacity="1.000000" stroke="none" 
	d="
M310.027649,458.112305 
	C306.321106,455.987823 302.669220,453.859619 304.622894,449.191132 
	C306.279053,445.233521 309.874451,444.550201 313.807098,445.739899 
	C318.204041,447.070068 319.673950,450.233521 319.059204,454.529022 
	C318.301117,459.826019 315.645935,460.935822 310.027649,458.112305 
z"/>
<path fill="white" opacity="1.000000" stroke="none" 
	d="
M312.774597,479.115051 
	C308.835754,479.454620 305.459808,478.376404 305.315735,474.685913 
	C305.211029,472.002441 307.317657,469.232697 308.438293,466.501404 
	C311.200989,468.285095 314.755188,469.507080 316.522339,471.997253 
	C318.640869,474.982574 317.090912,478.001068 312.774597,479.115051 
z"/>
<path fill="white" opacity="1.000000" stroke="none" 
	d="
M29.495018,48.972694 
	C25.170464,47.634315 22.556002,44.889507 23.474873,40.853828 
	C24.027109,38.428402 26.371054,34.980003 28.380814,34.619862 
	C32.373871,33.904312 38.496044,39.924046 38.497364,43.256424 
	C38.498913,47.169876 35.729641,49.030182 29.495018,48.972694 
z"/>
<path fill="white" opacity="1.000000" stroke="none" 
	d="
M29.736385,26.399258 
	C26.139475,23.924715 23.525454,21.073399 26.499777,17.207634 
	C28.834473,14.173197 32.528286,14.270607 35.453056,16.562140 
	C38.773800,19.163916 38.314980,22.576038 36.317215,25.935085 
	C34.507423,28.978079 32.319000,28.107397 29.736385,26.399258 
z"/>
</svg>

<svg xmlns="http://www.w3.org/2000/svg" viewBox="0 0 340 500" xml:space="preserve"><path fill="transparent" d="M341 193v308H1V1h340v192M234.276 386.744l-26.877 26.422c13.269 8.488 24.52 20.26 33.587 33.583 5.675-6.566 10.669-13.055 16.414-18.79 5.702-5.692 12.161-10.627 18.588-16.15-13.867-8.847-25.126-20.607-34.625-34.531a995.756 995.756 0 0 1-7.087 9.466m-74.33-77.32c-7.566 6.906-15.13 13.813-22.93 20.934 13.505 8.767 24.88 20.445 34.388 34.53 9.426-14.376 20.945-25.77 35.152-35.172-14.37-9.348-25.77-20.966-35.045-34.858a2410.93 2410.93 0 0 1-11.565 14.565m-53.61-255.319-5.093-6.945c-9.264 14.17-20.84 25.69-35.152 35.124 14.495 9.376 25.876 21.058 35.285 35.13 9.442-14.288 20.884-25.746 33.657-34.163-9.418-9.532-18.83-19.058-28.698-29.146m140.657 55.422 28.095-28.28c-12.91-8.267-24.224-19.993-33.425-33.547-5.578 6.534-10.5 13.074-16.235 18.8-5.724 5.715-12.262 10.614-18.75 16.132 13.85 9.054 25.335 20.654 34.597 34.713 1.961-2.69 3.626-4.972 5.718-7.818m10.066 151.032 18.905-16.211c-13.793-9.068-25.208-20.571-34.627-34.785-9.346 14.161-20.82 25.767-35.29 35.196 14.519 9.357 25.823 21.088 34.99 34.547 5.394-6.342 10.455-12.293 16.022-18.747m-80.49-123.65-5.323-7.294c-9.193 14.144-20.75 25.677-35.232 35.195 14.58 9.245 25.847 21.028 35.378 35.074 9.48-14.36 20.948-25.808 33.662-34.163-9.432-9.495-18.745-18.87-28.486-28.812m-61.516 125.659 20.787-18.315c-13.776-9.03-25.097-20.57-34.527-34.683-9.364 14.274-20.925 25.752-35.2 35.233 14.458 9.389 25.787 20.947 34.962 34.705 4.668-5.696 9.07-11.068 13.978-16.94m-19.2 177.126 5.586 7.662c9.418-14.342 20.92-25.703 35.105-35.133-14.34-9.312-25.722-20.958-35.259-35.115-9.474 14.362-20.933 25.791-33.709 34.179 9.38 9.386 18.605 18.617 28.278 28.407m228.922 34.363-3.952-12.26c-.503.36.104-.13.764-.536 3.923-2.413 5.846-5.909 5.259-10.484-.576-4.482-3.645-7-7.67-8.34-5.561-1.852-11.178-1.802-16.585.561-8.203 3.585-9.22 13.052-2.066 18.457 1.13.854 2.306 1.643 3.525 2.507-1.634 1.488-3.111 2.583-4.279 3.945-2.979 3.474-2.594 8.523.435 11.764 5.065 5.42 22.415 5.216 24.57-5.614M23.74 52.116c3.62.29 7.27 1.011 10.856.774 6.42-.425 10.909-3.991 12.059-8.802 1.15-4.814-.943-8.638-6.866-12.554-.485-.32-.948-.675-1.477-1.054 7.01-5.113 8.62-10.41 4.702-15.014-4.584-5.386-16.427-5.785-21.993-.742-4.801 4.35-4.088 10.423 1.977 16.83-9.846 7.991-9.86 15.238.742 20.562m273.427 352.561-3.148 2.622 2.004-1.282 15.196 15.463 13.73-14.134-13.996-14.37c-3.398 2.887-8.318 7.068-13.786 11.701M29.985 102.417c.807.11 2.027.62 2.36.274 5.02-5.206 9.921-10.524 13.587-14.46L31.725 73.848 17.079 88.626c3.185 3.364 7.849 8.29 12.906 13.79z"/><path fill="currentColor" d="M234.507 386.472c2.303-3.063 4.376-5.855 6.856-9.194 9.499 13.924 20.758 25.684 34.625 34.53-6.427 5.524-12.886 10.459-18.588 16.151-5.745 5.735-10.739 12.224-16.414 18.79-9.067-13.322-20.318-25.095-33.587-33.583 8.986-8.834 17.932-17.628 27.108-26.694zM160.184 309.16a4549.98 4549.98 0 0 0 11.327-14.302c9.275 13.892 20.675 25.51 35.045 34.858-14.207 9.402-25.726 20.796-35.152 35.172-9.508-14.085-20.883-25.763-34.388-34.53a9875.449 9875.449 0 0 0 23.168-21.197zM106.562 54.385c9.64 9.807 19.053 19.333 28.47 28.865-12.772 8.417-24.214 19.875-33.656 34.162-9.409-14.071-20.79-25.753-35.285-35.129 14.312-9.435 25.888-20.955 35.152-35.124 1.949 2.657 3.52 4.801 5.32 7.226zM246.778 109.808c-1.878 2.564-3.543 4.847-5.504 7.536-9.262-14.059-20.748-25.66-34.597-34.713 6.488-5.518 13.026-10.417 18.75-16.132 5.735-5.726 10.657-12.266 16.235-18.8 9.2 13.554 20.515 25.28 33.425 33.548a11484.24 11484.24 0 0 0-28.309 28.56zM256.805 260.81a6712.396 6712.396 0 0 0-15.769 18.495c-9.167-13.459-20.471-25.19-34.99-34.547 14.47-9.429 25.944-21.035 35.29-35.196 9.419 14.214 20.834 25.717 34.627 34.785a7991.708 7991.708 0 0 0-19.158 16.463zM176.781 137.191c9.527 9.659 18.84 19.034 28.272 28.529-12.714 8.355-24.183 19.802-33.662 34.163-9.531-14.046-20.798-25.829-35.378-35.074 14.483-9.518 26.04-21.051 35.232-35.195 1.992 2.73 3.657 5.012 5.536 7.577zM114.798 262.817a4202.838 4202.838 0 0 0-13.725 16.69c-9.175-13.758-20.504-25.316-34.961-34.705 14.274-9.48 25.835-20.959 35.2-35.233 9.43 14.113 20.75 25.654 34.526 34.683-6.986 6.155-13.886 12.235-21.04 18.565zM95.628 439.413c-9.449-9.51-18.674-18.74-28.054-28.127 12.776-8.388 24.235-19.817 33.71-34.179 9.536 14.157 20.917 25.803 35.258 35.115-14.185 9.43-25.687 20.79-35.105 35.133-1.997-2.74-3.791-5.2-5.81-7.942zM324.685 474.439c-2.065 10.447-19.415 10.65-24.48 5.231-3.03-3.241-3.414-8.29-.435-11.764 1.168-1.362 2.645-2.457 4.28-3.945-1.22-.864-2.397-1.653-3.526-2.507-7.154-5.405-6.137-14.872 2.066-18.457 5.407-2.363 11.024-2.413 16.586-.561 4.024 1.34 7.093 3.858 7.669 8.34.587 4.575-1.336 8.071-5.259 10.484-.66.405-1.267.897-.764.536 1.439 4.463 2.695 8.362 3.863 12.643m-14.311-16.18c5.272 2.677 7.927 1.567 8.685-3.73.615-4.295-.855-7.459-5.252-8.79-3.933-1.189-7.528-.505-9.184 3.452-1.954 4.669 1.698 6.797 5.75 9.067m2.819 20.821c3.899-1.078 5.449-4.096 3.33-7.082-1.767-2.49-5.321-3.712-8.084-5.496-1.12 2.732-3.227 5.501-3.122 8.185.144 3.69 3.52 4.769 7.876 4.393zM23.35 52.017C13.14 46.792 13.154 39.545 23 31.554c-6.065-6.407-6.778-12.48-1.977-16.83 5.566-5.043 17.409-4.644 21.993.742 3.918 4.603 2.308 9.9-4.702 15.014.53.379.992.733 1.477 1.054 5.923 3.916 8.016 7.74 6.866 12.554-1.15 4.811-5.638 8.377-12.059 8.802-3.586.237-7.235-.484-11.246-.873m6.544-2.982c5.835-.005 8.604-1.865 8.602-5.779-.001-3.332-6.123-9.352-10.116-8.636-2.01.36-4.354 3.808-4.906 6.234-.919 4.036 1.695 6.78 6.42 8.181m.144-22.412c2.28 1.484 4.468 2.355 6.278-.688 1.998-3.359 2.457-6.771-.864-9.373-2.925-2.291-6.619-2.389-8.953.646-2.975 3.865-.36 6.717 3.54 9.415zM297.442 404.451c5.194-4.407 10.114-8.588 13.512-11.475l13.997 14.37-13.731 14.134-15.196-15.463-2.004 1.282c1.05-.874 2.098-1.748 3.422-2.848zM29.788 102.129a2378.318 2378.318 0 0 0-12.71-13.503l14.647-14.778L45.932 88.23c-3.666 3.936-8.568 9.254-13.586 14.46-.334.345-1.554-.163-2.558-.562z"/><path fill="#fff" d="M310.028 458.112c-3.707-2.124-7.359-4.252-5.405-8.92 1.656-3.958 5.251-4.642 9.184-3.452 4.397 1.33 5.867 4.494 5.252 8.789-.758 5.297-3.413 6.407-9.031 3.583zM312.775 479.115c-3.94.34-7.315-.739-7.46-4.43-.104-2.683 2.003-5.452 3.123-8.184 2.763 1.784 6.317 3.006 8.084 5.496 2.119 2.986.569 6.004-3.747 7.118zM29.495 48.973c-4.325-1.339-6.939-4.083-6.02-8.12.552-2.425 2.896-5.873 4.906-6.233 3.993-.716 10.115 5.304 10.116 8.636.002 3.914-2.767 5.774-9.002 5.717zM29.736 26.4c-3.597-2.475-6.21-5.327-3.236-9.192 2.334-3.035 6.028-2.937 8.953-.646 3.32 2.602 2.862 6.014.864 9.373-1.81 3.043-3.998 2.172-6.58.464z"/></svg>
